packages/core/src/svg/icon-fill.svg

<?xml version="1.0" encoding="UTF-8"?>
<svg xmlns="http://www.w3.org/2000/svg" width="100%" height="100%" viewBox="0 0 24 24">
  <path d="M14.8294615,20.5124154 C16.4065385,20.5124154 17.2068462,20.6979538 17.9808462,20.8765692 C18.6911538,21.0420308 19.362,21.1971077 20.7417692,21.1971077 L20.7417692,22.9050308 C19.1681538,22.9050308 18.3678462,22.7201846 17.5945385,22.5422615 C16.8835385,22.3761077 16.2113077,22.2210308 14.8294615,22.2210308 C13.4476154,22.2210308 12.7760769,22.3761077 12.0643846,22.5415692 C11.2917692,22.7201846 10.4914615,22.9050308 8.91507692,22.9050308 C7.34007692,22.9050308 6.53907692,22.7201846 5.76507692,22.5415692 C5.05338462,22.3761077 4.38115385,22.2210308 3,22.2210308 L3,20.5124154 C4.57638462,20.5124154 5.37669231,20.6979538 6.15,20.8765692 C6.86169231,21.0420308 7.53392308,21.1971077 8.91507692,21.1971077 C10.2962308,21.1971077 10.9677692,21.0420308 11.6787692,20.8765692 C12.4527692,20.6979538 13.2530769,20.5124154 14.8294615,20.5124154 Z M3.90830769,14.7241 L6.39023077,17.2053308 L3,18.1136385 L3.90830769,14.7241 Z M18.9021692,3.86234615 L20.1164769,5.07665385 L8.57293846,16.6208846 L7.35863077,15.4065769 L18.9021692,3.86234615 Z M16.0396154,1 L17.2546154,2.215 L5.71038462,13.7585385 L4.49607692,12.5442308 L16.0396154,1 Z" />
</svg>

<?xml version="1.0" encoding="UTF-8"?><svg viewBox="0 0 24 24" xmlns="http://www.w3.org/2000/svg"><path d="m14.829 20.512c1.5771 0 2.3774 0.18554 3.1514 0.36415 0.71031 0.16546 1.3812 0.32054 2.7609 0.32054v1.7079c-1.5736 0-2.3739-0.18485-3.1472-0.36277-0.711-0.16615-1.3832-0.32123-2.7651-0.32123-1.3818 0-2.0534 0.15508-2.7651 0.32054-0.77262 0.17862-1.5729 0.36346-3.1493 0.36346-1.575 0-2.376-0.18485-3.15-0.36346-0.71169-0.16546-1.3839-0.32054-2.7651-0.32054v-1.7086c1.5764 0 2.3767 0.18554 3.15 0.36415 0.71169 0.16546 1.3839 0.32054 2.7651 0.32054 1.3812 0 2.0527-0.15508 2.7637-0.32054 0.774-0.17862 1.5743-0.36415 3.1507-0.36415zm-10.921-5.7883 2.4819 2.4812-3.3902 0.90831 0.90831-3.3895zm14.994-10.862 1.2143 1.2143-11.544 11.544-1.2143-1.2143 11.544-11.544zm-2.8626-2.8623 1.215 1.215-11.544 11.544-1.2143-1.2143 11.544-11.544z"/></svg>
